X:1
T:Title
%%score { ( 1 3 ) | 2 }
L:1/8
M:4/4
K:A
V:1 treble nm="Grand Piano"
V:3 treble 
V:2 bass 
V:1
 z4 z2[Q:1/4=100] [A,C][B,D] | [CE][CE][DF][CE] [CE][CA][CA][DB] | [Ec][CA]FA E2 C[B,D] | %3
 [CE][CE][CF][CG] [CA][EA][^DB][Dc] |[M:3/4] B6 |[M:1/4] cB | %6
[M:4/4] [CA][CA][A,C][B,D] [CE][CE][EA]B | cBcd e2 [CE][CE] | [DF][DF][Fd][FB] AGFG | %9
[M:3/4] [CEA]6 |[M:1/4] cB |[M:4/4] A6 z2 | B4 z4 | B6 z2 |[M:3/4] c6 |[M:1/4] cB | %16
[M:4/4] [CA][CA][A,C][B,D] [CE][CE][EA]B | cBcd e2 [CE][CE] | [DF][DF][Fd][FB] AGFG | %19
[M:7/4] [CEA]6 z2 z2 z4 |] %20
V:2
 z4 z2 [A,,E,][A,,E,] | [A,,A,][A,,A,][A,,A,][A,,A,] [A,,A,][A,,E,][A,,E,][A,,E,] | %2
 [A,,A,][A,,A,][D,A,D][F,A,D] [A,C]2 [A,,E,A,][A,,E,] | %3
 [A,,A,][A,,A,][A,,A,][A,,A,] [A,,A,][C,A,][B,,A,][B,,A,] |[M:3/4] [E,G,E]6 | %5
[M:1/4] [E,G,E][E,G,D] |[M:4/4] [A,,A,][A,,A,][A,,E,][A,,E,] [A,,A,][A,,A,][C,A,][E,G,E] | %7
 [A,E][A,DE][A,CE][A,B,E] [A,CE]2 [A,,A,][A,,A,] | %8
 [D,A,][D,A,][D,A,][D,D] [E,CE][E,B,E][E,DE][E,DE] |[M:3/4] A,,6 |[M:1/4] z2 | %11
[M:4/4] [A,CE][A,C][A,C][A,C] [A,C][A,E][A,E][A,CE] | E,E,E,E, E,2[K:treble] dc | %13
 E,E,E,E, E,E,E,E, |[M:3/4][K:treble] [A,EA]2 [A,E][K:bass][A,E] [A,E]2 |[M:1/4] [E,G,E][E,G,D] | %16
[M:4/4] [A,,A,][A,,A,][A,,E,][A,,E,] [A,,A,][A,,A,][C,A,][E,G,E] | %17
 [A,E][A,DE][A,CE][A,B,E] [A,CE]2 [A,,A,][A,,A,] | %18
 [D,A,][D,A,][D,A,][D,D] [E,CE][E,B,E][E,DE][E,DE] |[M:7/4] A,,6 z2 z2 z4 |] %20
V:3
 x8 | x8 | x8 | x8 |[M:3/4] x6 |[M:1/4] x2 |[M:4/4] x8 | x8 | x8 |[M:3/4] x6 |[M:1/4] x2 | %11
[M:4/4] z EEE EccA | [DG][DG][DG][DG] [DGB]2 z2 | [DG][DG][DG][DG] [DG][DGB][CEA][EGB] | %14
[M:3/4] z2 AA A2 |[M:1/4] x2 |[M:4/4] x8 | x8 | x8 |[M:7/4] x14 |] %20

